X:109
T:Star of the County Down
R:waltz
M:3/4
L:1/4
Q:1/4=180
K:Am
EG|"Am"A2A|"F"A>GA|"C"c2c|"G"d>cd|"Am"e>dc|A>GE|"Em"G3|"E"^GcB|
"Am"A2A|"F"A>GA|"C"c2c|"G"d>cd|"Am"e>dc|A2A|"Am"A3-|A2e|
"C"g2e|e>dc|"G"d2d|d>cd|"Am"e>dc|A>GE|"Em"G3|"E"^GcB|
"Am"A2A|"F"A>G A/B/|"C"c2c|"G"d>cd|"Am"e>dc|A2A|"Am"A3-|A||
